!!!SOCIAL_FUNCTION:	song of the coming of the white buffalo maiden
!!!PDT:	1918

Specific Region: Dakotas, Minnesota, Montana, Nebraska
!!!REG: Dakotas and Montana
!!!LING_GROUP: Siouan
!!!LANG: Tone
!!!OTL@ENG: Song of the White Buffalo Maiden
!!!ONM: No. 1
**kern
*Imale
*clefF4
*k[b-e-]
*M2/4
*MM58
16d
=1
4d
16d
32A
32A
16A
32G
32G
=2||
*M3/4
[2G
8.G]
16A
=3||
*M2/4
4A
16A
32G
32G
16G
32G
32G
=4||
*M3/4
(16B-
8.G)
4G
8.G
16B-
=5
(16B-
8G)
16G
8.G
16A
(8G
16F)
16F
=6||
!!!RNB: Dotted eighth note in bar 6 does not have dot in source.
*M2/4
(16F
8.D)
4D
=7
4D
4D
=8
4F
16F
32D
32D
16D
32D
32D
=9||
*M3/4
(16F
8.D)
4D
4D
=10||
*M2/4
8.F
16F
8.D
16D
=11
4..D
16A
=12
4A
16A
32G
32G
16G
32G
32G
=13||
*M3/4
(16B-
8.G)
4G
8.G
16B-
=14
(16B-
8G)
16G
8.G
16A
(8G
16F)
16F
=15||
*M2/4
(16F
8.D)
4D
=16
4D
4D
=17
4F
16F
32D
32D
16D
32D
32D
=18||
*M3/4
(16F
8.D)
4D
4D
=19||
*M2/4
8.F
16F
8.D
16D
=20
2D
==
*-
!!!CNT: Native American -- Sioux
!!!MRD: 1911/07//-1914///
!!!OCL: Frances Densmore
!!!YOR1: Teton Sioux Music, Bulletin 61,
!!!YOR2: Bureau of American Ethnology, Smithsonian Institution
!!!PPR: Government Printing Office
!!!PPP: Washington, D.C.
!!!PDT: 1918///
!!!ENC: Craig Stuart Sapp
!!!END: 2002/03/25/
!!!EEV: 2002/03/31/
!!!AGN: Song of the Coming of the White Buffalo Maiden
!!!MPN@@SIO: Waking'yan-wata'kpe
!!!MPN@ENG: Charging Thunder
!!!TXO: Teton Sioux
!!!MLC: Standing Rock Reservation, South Dakota, United States of America
!!!ARL: 45.9/-100.7#
!!!catalog: Catalogue No. 569
!!!PPG: 67
!!!EFL: 1/245
!!!VTS: 72308696
